X:1
T:C'est la Vie (first)
C:Lincoln Hilton
R:Slow Air
M:2/4
L:1/4
K:D
Z:Transcribed by Stephen Beitzel
[| {g}A {Gdc}d/{gf}g/ | {g}f a/{ef}e/- | e- e- | e {g}d/e/ |
{gfg}f {g}B/{Gdc}d/- | d/e/ {g}A | {GAG}A- A- | A {g}A/4B/4d/ |
{g}d/>e/ {g}f/{ag}a/- | a {g}a | {e}f {g}e- | e {g}d/e |
{gfg}f {g}B/{Gdc}d/- | d/e/ {g}A | {GAG}A- A- | A-A |]
[| {g}A/{g}A/4B/4 {g}d/g/4{a}f/4- | f/e {g}d/a/4{ef}e/4- |e-e- | e {g}d/e/ |
{gfg}f {g}B/{Gdc}d/- | d/e/ {g}A | {GAG}A-A- | A {g}A/4B/4d/ |
{g}d {G}d | {e}A-A | {ge}f {gfg}f/<e/ | {g}d {g}d/4c/4B/4A/4 |
{g}B/4c/4d/4{g}d/4 c/4{G}c/4{g}d/4f/4 | {gef}e/4d/4c/4{gde}d/4 c/4{d}A/4{g}A/4{d}B/4 | {g}A/4{d}B/4{G}B/4{g}d/4 B/4d/4{g}e/4{A}e/4 | {g}B {g}d/e/ |
{gfg}f {g}B/{Gdc}d/- | d/{g}e/ {A}e | {g}e-e | {ag}a-a |
{Gdc}d-d- | d-d |]
